X: 28620
T: Music For A Lost Euphonium
R: reel
M: 4/4
K: Dmajor
F2FE FGAF|G2GF GBAG|FD (3DDD FGAF|GECD EDDE|
F2FE FGAF|GFEF GABc|dD (3DDD FGAF|GECD EDDz:|
=FEDE FAGF|^DFBA ^GABG|A2A^G ABcd|eA (3AAA eA^GA|
eA (3AAA ^GA (3AAA|GA (3AAA FAAF|GECD EDDC|
DE=FE FAGF|^DFBA ^GABG|A2A^G ABcd|eA (3AAA eA^GA|
eA (3AAA ^GA (3AAA|GA (3AAA FAAF|GECD EDCE|DFEC D3E||

